X:1849
T:Bourree Mouergue
Z:abc transcription Simon Wascher
N:please mail errors to: simon.wascher@chello.at
M:2/4
L:1/8
K:Gm
G2 AB|A3/2G/2 ^FD|G2 AB|c3/2B/2 AB|
G2 AB|A3/2G/2 ^FD|GA/2B/2 A^F|G4:|
|:G2 AB|c3/2B/2 AB|d2 ^cB|A3/2G/2 ^FD|
G2 AB|c3/2B/2 AB|GA/2B/2 A^F|G4:|


